2. Evclid/img/fb-320.svg

<svg height="40" viewBox="0 0 40 40" width="40" xmlns="http://www.w3.org/2000/svg"><path d="m20.273438.078125c-10.820313 0-19.671876 8.867187-19.671876 19.792969 0 9.875 7.199219 18.070312 16.601563 19.550781v-13.824219h-4.996094v-5.726562h4.996094v-4.367188c0-4.957031 2.933594-7.683594 7.4375-7.683594 2.144531 0 4.386719.375 4.386719.375v4.878907h-2.480469c-2.4375 0-3.203125 1.523437-3.203125 3.082031v3.714844h5.46875l-.886719 5.726562h-4.582031v13.824219c4.632812-.734375 8.855469-3.109375 11.898438-6.695313 3.046874-3.585937 4.714843-8.144531 4.703124-12.855468 0-10.925782-8.851562-19.792969-19.671874-19.792969zm0 0" fill="#7c7c7c"/></svg>

<?xml version="1.0" encoding="UTF-8"?>
<svg xmlns="http://www.w3.org/2000/svg" xmlns:xlink="http://www.w3.org/1999/xlink" width="40px" height="40px" viewBox="0 0 40 40" version="1.1">
<g id="surface1">
<path style=" stroke:none;fill-rule:nonzero;fill:rgb(48.627451%,48.627451%,48.627451%);fill-opacity:1;" d="M 20.273438 0.078125 C 9.453125 0.078125 0.601562 8.945312 0.601562 19.871094 C 0.601562 29.746094 7.800781 37.941406 17.203125 39.421875 L 17.203125 25.597656 L 12.207031 25.597656 L 12.207031 19.871094 L 17.203125 19.871094 L 17.203125 15.503906 C 17.203125 10.546875 20.136719 7.820312 24.640625 7.820312 C 26.785156 7.820312 29.027344 8.195312 29.027344 8.195312 L 29.027344 13.074219 L 26.546875 13.074219 C 24.109375 13.074219 23.34375 14.597656 23.34375 16.15625 L 23.34375 19.871094 L 28.8125 19.871094 L 27.925781 25.597656 L 23.34375 25.597656 L 23.34375 39.421875 C 27.976562 38.6875 32.199219 36.3125 35.242188 32.726562 C 38.289062 29.140625 39.957031 24.582031 39.945312 19.871094 C 39.945312 8.945312 31.09375 0.078125 20.273438 0.078125 Z M 20.273438 0.078125 "/>
</g>
</svg>
